public/library/celoscan-text-light.svg

<svg viewBox="0 0 114 26" fill="none" xmlns="http://www.w3.org/2000/svg">
<path fill-rule="evenodd" clip-rule="evenodd" d="M25.9538 0H0.435547V25.682H25.9533V16.7172H21.7184C20.2586 19.9876 16.9728 22.2654 13.2125 22.2654C8.02853 22.2654 3.83037 18.0039 3.83037 12.823C3.83037 7.64221 8.02853 3.41712 13.2125 3.41712C17.0457 3.41712 20.3315 5.76873 21.7919 9.11197H25.9538V0ZM50.6663 16.7167C49.1698 19.987 45.9205 22.2647 42.1242 22.2649C37.086 22.2649 32.9608 18.2234 32.7783 13.1898H54.9012V0H29.3829V25.6814H54.9012V16.7167H50.6663ZM50.9934 10.0303H33.1782H33.1777C34.3093 5.80518 38.0696 3.41716 42.122 3.41716C46.1743 3.41716 49.6793 5.65795 50.9934 10.0303ZM110.005 12.8225C110.005 18.0398 105.843 22.2649 100.659 22.2649C95.5115 22.2649 91.3133 18.0033 91.3133 12.8225C91.3133 7.64169 95.4753 3.4166 100.659 3.4166C105.843 3.4166 110.005 7.60527 110.005 12.8225ZM113.436 0H87.918V25.682H113.436V0ZM80.4927 16.7167H84.7276V25.6814H58.2969V0H62.6046V12.8225C62.6046 18.5543 66.8395 22.2284 71.8772 22.2284C75.7833 22.2284 79.2148 20.0974 80.4927 16.7172V16.7167Z" fill="black"/>
</svg>

<svg xmlns="http://www.w3.org/2000/svg" fill="none" viewBox="0 0 114 26"><path fill="#000" fill-rule="evenodd" d="M25.954 0H.436v25.682h25.517v-8.965h-4.235c-1.46 3.27-4.745 5.548-8.505 5.548-5.184 0-9.383-4.261-9.383-9.442 0-5.18 4.199-9.406 9.383-9.406 3.833 0 7.118 2.352 8.579 5.695h4.162zm24.712 16.717c-1.496 3.27-4.745 5.548-8.542 5.548-5.038 0-9.163-4.042-9.346-9.075h22.123V0H29.383v25.681H54.9v-8.964zm.327-6.687H33.178c1.131-4.225 4.892-6.613 8.944-6.613s7.557 2.24 8.871 6.613m59.012 2.793c0 5.217-4.162 9.442-9.346 9.442-5.148 0-9.346-4.262-9.346-9.442s4.162-9.406 9.346-9.406 9.346 4.188 9.346 9.406M113.436 0H87.918v25.682h25.518zM80.493 16.717h4.235v8.964H58.297V0h4.308v12.823c0 5.731 4.235 9.405 9.272 9.405 3.906 0 7.338-2.13 8.616-5.51z" clip-rule="evenodd"/></svg>
